tools/download-figma-icons/icons/solid/surface-66.svg

<svg width="24" height="24" viewBox="0 0 24 24" fill="none" xmlns="http://www.w3.org/2000/svg">
<path d="M23.6025 11.34L12.39 5.34C12.165 5.22 11.9025 5.22 11.6775 5.34L0.3975 11.34C0.1575 11.4675 0 11.7225 0 12C0 12.2775 0.15 12.5325 0.3975 12.66L3.1875 14.145C3.195 14.1525 3.2025 14.1525 3.21 14.16L11.67 18.66C11.73 18.69 11.7825 18.7125 11.8425 18.7275C11.9025 18.7425 11.9625 18.75 12.0225 18.75C12.15 18.75 12.27 18.72 12.3825 18.66L20.79 14.16L23.6025 12.66C23.85 12.5325 24 12.2775 24 12C24 11.7225 23.85 11.4675 23.6025 11.34ZM20.4375 12.6525L12.3825 8.34C12.1575 8.22 11.895 8.22 11.67 8.34L3.57 12.6525L2.3475 12L12.0375 6.8475L21.66 12L20.4375 12.6525Z" fill="black"/>
</svg>

<svg xmlns="http://www.w3.org/2000/svg" width="24" height="24" fill="none" viewBox="0 0 24 24"><path fill="currentColor" d="m23.603 11.34-11.213-6a.75.75 0 0 0-.713 0l-11.28 6A.75.75 0 0 0 0 12c0 .277.15.533.398.66l2.79 1.485c.007.008.014.008.022.015l8.46 4.5a.74.74 0 0 0 .352.09q.192 0 .36-.09l8.408-4.5 2.813-1.5A.74.74 0 0 0 24 12a.74.74 0 0 0-.398-.66m-3.166 1.313L12.383 8.34a.75.75 0 0 0-.712 0l-8.1 4.313L2.348 12l9.69-5.152L21.66 12z"/></svg>
